X: 39284
T: Taka's Tune
R: reel
M: 4/4
K: Fmajor
cFF2 cFdF|cdcA GFDC|A,CFD CDFG|AGFA G2FG|
Acdc cAFA|B2AB GFDC|A,CFD CDFA|GFGA F2FA:|
cFF2 c2de|fgfd c2AB|cffd c2A^c|dffe f2fg|
aff2 bgg2|agfd cAFD|A,CFD CDFA|GFGA F2FA:|

